!!!COM: Tagore, Rabindranath
!!!CDT: 1861-1941
!!!OTL: National Anthem, India
!!!ENC: Davis, Matthew J.
!!Vocal Line Only
**kern
*clefG2
*k[b-e-a-]
*E-:
*M4/4
=1-
8e-
8f
8g
8g
8g
8g
8g
8g
=2
8a-q
4g
8g
8g
8gq
8f
8g
4a
=3
8a-q
4g
8g
8g
4f
8f
8f
=4
8d
8f
2e-
4e-
=5
8e-q
4b-
8b-
[8b-
8b-]
8b-
8b-
[8b-
=6
8b-]
8b-
8b-
8anq
8b-
8an
8cc
4b-
=7
4a-
8a-
8a-
4a-
8a-
8a-
=8
8gq
8f
8a-
2.g
=9
4g
8g
8g
4g
8g
8g
=10
8gq
8b-
8b-
8b-
8a-
4a-
4a-
=11
4g
8g
8g
8gq
8f
8f
8f
8d
=12
8d
8f
2.e-
=13
8g
8g
8g
8g
4g
8g
8g
=14
8gq
8f
8g
2.a-
=15
8g
8a-
8b-
8b-
4b-
8a-
8g
=16
8f
8a-
2.g
=17
8dq
4g
4g
8g
8g
8f
8f
=18
8fq
8d
8f
2.e-
=29
8e-q
8b-
8b-
8b-
8b-
4b-
8b-
8an
=20
4b-
8b-
8b-
8an
8cc
4b-
=21
4a-
8a-
8a-
8a-q
4g
8g
8g
=22
8f
8a-
[4g
8g]
8r
8dd
8dd
=23
2.ee-
8ee-q
8dd
8cc
=24
2.dd
8ddq
8b-
8b-
=25
1cc
=26
8e-
8e-
8f
8f
8g
8g
8f
8g
=27
2a-
==28
8e-
8e-
8e-
8e-
8e-
8e-
8d
8e-
=29
4f
8f
8f
4f
8f
8f
=30
8e-
8f
8g
8g
8g
[8g
8g]
8g
=31
8f
8g
2.a-
=32
4b-
8b-
[8b-
8b]
8an
8b-
8a-
=33
8b-
8dd
8cc
8cc
8b-
8an
8b-
8b-
=34
8a-
4a-
8a-
8g
8g
4f
=35
8d
8f
2.e-
=36
4g
8g
8g
4g
8g
8g
=37
8f
8g
2.a-
=38
8g
8a-
4b-
4b-
8a-
8g
=39
8f
8a-
2.g
=40
4g
8g
[8g
8g]
8g
2f
=41
8d
8f
2.e-
=42
8b-
8b-
8b-
8b-
4b-
8b-
8b-
=43
4b-
8b-
8b-
8an
8cc
4b-
=44
4a-
8a-
8a-
4g
8g
8g
=45
8f
8a-
[4g
8g]
8r
8dd
8dd
=46
2.ee-
8ee-q
8dd
8cc
=47
2.dd
8ddq
8b-
8b-
=48
1cc
=49
8e-
8e-
8f
8f
8g
8g
8f
8g
=50
1a-
==|!
*-
